X: 42952
T: Willie Bucach Macleod Of Stornoway
R: reel
M: 4/4
K: Amajor
|:A2 e2 eccB|A2 ca ef f2|A2 e2 eccB|AcBc aA e2:|
|:f2ef a2 cc|Bcec e2 ce|f2 ef a2 AA|AcBc aA e2:|

